Profile Folder/chrome/assets/img/chrome-1/toolbar/bookmark_bar_folder.svg

<svg fill="none" version="1.1" viewBox="0 0 16 16" xmlns="http://www.w3.org/2000/svg">
    <g transform="translate(0,-1)" filter="url(#filter0_d_248_11)">
        <g filter="url(#filter1_ii_248_11)">
            <path d="m1 3 1-1h5l1 1v3h-7z" fill="url(#paint0_linear_248_11)"/>
        </g>
        <path d="M 6.79289,2.5 7.5,3.20711 V 5.5 h -6 V 3.20711 L 2.20711,2.5 Z" stroke="#81603f"/>
        <g filter="url(#filter2_ii_248_11)">
            <path d="m1 4h13l1 1v9l-1 1h-13l-1-1v-9z" fill="url(#paint1_linear_248_11)"/>
        </g>
        <path d="M 0.5,5.20711 1.20711,4.5 H 13.7929 L 14.5,5.20711 V 13.7929 L 13.7929,14.5 H 1.20711 L 0.5,13.7929 Z" stroke="#81603f"/>
    </g>
    <defs>
        <filter id="filter0_d_248_11" x="0" y="2" width="16" height="14" color-interpolation-filters="sRGB" filterUnits="userSpaceOnUse">
            <feFlood flood-opacity="0" result="BackgroundImageFix"/>
            <feColorMatrix in="SourceAlpha" result="hardAlpha" values="0 0 0 0 0 0 0 0 0 0 0 0 0 0 0 0 0 0 127 0"/>
            <feOffset dx="1" dy="1"/>
            <feComposite in2="hardAlpha" operator="out"/>
            <feColorMatrix values="0 0 0 0 1 0 0 0 0 1 0 0 0 0 1 0 0 0 1 0"/>
            <feBlend in2="BackgroundImageFix" result="effect1_dropShadow_248_11"/>
            <feBlend in="SourceGraphic" in2="effect1_dropShadow_248_11" result="shape"/>
        </filter>
        <filter id="filter1_ii_248_11" x="1" y="2" width="7" height="4" color-interpolation-filters="sRGB" filterUnits="userSpaceOnUse">
            <feFlood flood-opacity="0" result="BackgroundImageFix"/>
            <feBlend in="SourceGraphic" in2="BackgroundImageFix" result="shape"/>
            <feColorMatrix in="SourceAlpha" result="hardAlpha" values="0 0 0 0 0 0 0 0 0 0 0 0 0 0 0 0 0 0 127 0"/>
            <feOffset dx="2" dy="2"/>
            <feComposite in2="hardAlpha" k2="-1" k3="1" operator="arithmetic"/>
            <feColorMatrix values="0 0 0 0 1 0 0 0 0 1 0 0 0 0 1 0 0 0 0.25 0"/>
            <feBlend in2="shape" result="effect1_innerShadow_248_11"/>
            <feColorMatrix in="SourceAlpha" result="hardAlpha" values="0 0 0 0 0 0 0 0 0 0 0 0 0 0 0 0 0 0 127 0"/>
            <feOffset dx="-2" dy="-2"/>
            <feComposite in2="hardAlpha" k2="-1" k3="1" operator="arithmetic"/>
            <feColorMatrix values="0 0 0 0 0.956863 0 0 0 0 0.737255 0 0 0 0 0.454902 0 0 0 1 0"/>
            <feBlend in2="effect1_innerShadow_248_11" result="effect2_innerShadow_248_11"/>
        </filter>
        <filter id="filter2_ii_248_11" x="0" y="4" width="15" height="11" color-interpolation-filters="sRGB" filterUnits="userSpaceOnUse">
            <feFlood flood-opacity="0" result="BackgroundImageFix"/>
            <feBlend in="SourceGraphic" in2="BackgroundImageFix" result="shape"/>
            <feColorMatrix in="SourceAlpha" result="hardAlpha" values="0 0 0 0 0 0 0 0 0 0 0 0 0 0 0 0 0 0 127 0"/>
            <feOffset dx="2" dy="2"/>
            <feComposite in2="hardAlpha" k2="-1" k3="1" operator="arithmetic"/>
            <feColorMatrix values="0 0 0 0 1 0 0 0 0 1 0 0 0 0 1 0 0 0 0.25 0"/>
            <feBlend in2="shape" result="effect1_innerShadow_248_11"/>
            <feColorMatrix in="SourceAlpha" result="hardAlpha" values="0 0 0 0 0 0 0 0 0 0 0 0 0 0 0 0 0 0 127 0"/>
            <feOffset dx="-2" dy="-2"/>
            <feComposite in2="hardAlpha" k2="-1" k3="1" operator="arithmetic"/>
            <feColorMatrix values="0 0 0 0 0.956863 0 0 0 0 0.737255 0 0 0 0 0.454902 0 0 0 1 0"/>
            <feBlend in2="effect1_innerShadow_248_11" result="effect2_innerShadow_248_11"/>
        </filter>
        <linearGradient id="paint0_linear_248_11" x1="2.1666701" x2="6.15101" y1="2.90909" y2="5.9770398" gradientUnits="userSpaceOnUse">
            <stop stop-color="#FEEEBC" offset="0"/>
            <stop stop-color="#FFD185" offset="1"/>
        </linearGradient>
        <linearGradient id="paint1_linear_248_11" x1="2.5" x2="12.5" y1="6.5" y2="12.5" gradientUnits="userSpaceOnUse">
            <stop stop-color="#FEEEBC" offset="0"/>
            <stop stop-color="#FFD185" offset="1"/>
        </linearGradient>
    </defs>
</svg>

<svg width="16" height="18" viewBox="0 0 16 18" fill="none" xmlns="http://www.w3.org/2000/svg">
<g filter="url(#filter0_d_248_11)">
<g filter="url(#filter1_ii_248_11)">
<path d="M1 3L2 2H7L8 3V6H1V3Z" fill="url(#paint0_linear_248_11)"/>
</g>
<path d="M6.79289 2.5L7.5 3.20711V5.5H1.5V3.20711L2.20711 2.5H6.79289Z" stroke="#81603F"/>
<g filter="url(#filter2_ii_248_11)">
<path d="M1 4H14L15 5V14L14 15H1L0 14V5L1 4Z" fill="url(#paint1_linear_248_11)"/>
</g>
<path d="M0.5 5.20711L1.20711 4.5H13.7929L14.5 5.20711V13.7929L13.7929 14.5H1.20711L0.5 13.7929V5.20711Z" stroke="#81603F"/>
</g>
<defs>
<filter id="filter0_d_248_11" x="0" y="2" width="16" height="14" filterUnits="userSpaceOnUse" color-interpolation-filters="sRGB">
<feFlood flood-opacity="0" result="BackgroundImageFix"/>
<feColorMatrix in="SourceAlpha" type="matrix" values="0 0 0 0 0 0 0 0 0 0 0 0 0 0 0 0 0 0 127 0" result="hardAlpha"/>
<feOffset dx="1" dy="1"/>
<feComposite in2="hardAlpha" operator="out"/>
<feColorMatrix type="matrix" values="0 0 0 0 1 0 0 0 0 1 0 0 0 0 1 0 0 0 1 0"/>
<feBlend mode="normal" in2="BackgroundImageFix" result="effect1_dropShadow_248_11"/>
<feBlend mode="normal" in="SourceGraphic" in2="effect1_dropShadow_248_11" result="shape"/>
</filter>
<filter id="filter1_ii_248_11" x="1" y="2" width="7" height="4" filterUnits="userSpaceOnUse" color-interpolation-filters="sRGB">
<feFlood flood-opacity="0" result="BackgroundImageFix"/>
<feBlend mode="normal" in="SourceGraphic" in2="BackgroundImageFix" result="shape"/>
<feColorMatrix in="SourceAlpha" type="matrix" values="0 0 0 0 0 0 0 0 0 0 0 0 0 0 0 0 0 0 127 0" result="hardAlpha"/>
<feOffset dx="2" dy="2"/>
<feComposite in2="hardAlpha" operator="arithmetic" k2="-1" k3="1"/>
<feColorMatrix type="matrix" values="0 0 0 0 1 0 0 0 0 1 0 0 0 0 1 0 0 0 0.25 0"/>
<feBlend mode="normal" in2="shape" result="effect1_innerShadow_248_11"/>
<feColorMatrix in="SourceAlpha" type="matrix" values="0 0 0 0 0 0 0 0 0 0 0 0 0 0 0 0 0 0 127 0" result="hardAlpha"/>
<feOffset dx="-2" dy="-2"/>
<feComposite in2="hardAlpha" operator="arithmetic" k2="-1" k3="1"/>
<feColorMatrix type="matrix" values="0 0 0 0 0.956863 0 0 0 0 0.737255 0 0 0 0 0.454902 0 0 0 1 0"/>
<feBlend mode="normal" in2="effect1_innerShadow_248_11" result="effect2_innerShadow_248_11"/>
</filter>
<filter id="filter2_ii_248_11" x="0" y="4" width="15" height="11" filterUnits="userSpaceOnUse" color-interpolation-filters="sRGB">
<feFlood flood-opacity="0" result="BackgroundImageFix"/>
<feBlend mode="normal" in="SourceGraphic" in2="BackgroundImageFix" result="shape"/>
<feColorMatrix in="SourceAlpha" type="matrix" values="0 0 0 0 0 0 0 0 0 0 0 0 0 0 0 0 0 0 127 0" result="hardAlpha"/>
<feOffset dx="2" dy="2"/>
<feComposite in2="hardAlpha" operator="arithmetic" k2="-1" k3="1"/>
<feColorMatrix type="matrix" values="0 0 0 0 1 0 0 0 0 1 0 0 0 0 1 0 0 0 0.25 0"/>
<feBlend mode="normal" in2="shape" result="effect1_innerShadow_248_11"/>
<feColorMatrix in="SourceAlpha" type="matrix" values="0 0 0 0 0 0 0 0 0 0 0 0 0 0 0 0 0 0 127 0" result="hardAlpha"/>
<feOffset dx="-2" dy="-2"/>
<feComposite in2="hardAlpha" operator="arithmetic" k2="-1" k3="1"/>
<feColorMatrix type="matrix" values="0 0 0 0 0.956863 0 0 0 0 0.737255 0 0 0 0 0.454902 0 0 0 1 0"/>
<feBlend mode="normal" in2="effect1_innerShadow_248_11" result="effect2_innerShadow_248_11"/>
</filter>
<linearGradient id="paint0_linear_248_11" x1="2.16667" y1="2.90909" x2="6.15101" y2="5.97704" gradientUnits="userSpaceOnUse">
<stop stop-color="#FEEEBC"/>
<stop offset="1" stop-color="#FFD185"/>
</linearGradient>
<linearGradient id="paint1_linear_248_11" x1="2.5" y1="6.5" x2="12.5" y2="12.5" gradientUnits="userSpaceOnUse">
<stop stop-color="#FEEEBC"/>
<stop offset="1" stop-color="#FFD185"/>
</linearGradient>
</defs>
</svg>
